actions/22x22-light/draw-polyline.svg

<svg viewBox="0 0 22 22" xmlns="http://www.w3.org/2000/svg"><path d="m2.5 3v1 10 1h4v4h1 11 .992188l.007812-.007812-8.292969-8.292969-2.707031-2.7070315v-3.9921875-1h-5z" fill="#4d4d4d"/></svg>

<svg xmlns="http://www.w3.org/2000/svg" viewBox="0 0 22 22">
  <defs id="defs3051">
    <style type="text/css" id="current-color-scheme">
      .ColorScheme-Text {
        color:#4d4d4d
      }
      </style>
  </defs>
 <path 
     style="fill:currentColor;fill-opacity:1;stroke:none"      
        d="M 2.5 3 L 2.5 4 L 2.5 14 L 2.5 15 L 6.5 15 L 6.5 19 L 7.5 19 L 18.5 19 L 19.492188 19 L 19.5 18.992188 L 11.207031 10.699219 L 8.5 7.9921875 L 8.5 4 L 8.5 3 L 3.5 3 L 2.5 3 z "
	 class="ColorScheme-Text"
     />
</svg>
